icons/zed-light.svg

<svg width="256" height="256" viewBox="0 0 256 256" fill="none" xmlns="http://www.w3.org/2000/svg">
<g clip-path="url(#clip0_165_719)">
<path d="M196 0H60C26.8629 0 0 26.8629 0 60V196C0 229.137 26.8629 256 60 256H196C229.137 256 256 229.137 256 196V60C256 26.8629 229.137 0 196 0Z" fill="#F4F2ED"/>
<path fill-rule="evenodd" clip-rule="evenodd" d="M56.4062 51.9375C53.3862 51.9375 50.9377 54.3859 50.9377 57.4062V177.719H40V57.4062C40 48.3453 47.3454 41 56.4062 41H202.93C210.238 41 213.898 49.8359 208.73 55.0036L118.486 145.248H143.907V133.969H154.844V147.982C154.844 152.513 151.171 156.185 146.641 156.185H107.548L88.7495 174.984H173.984V106.625H184.922V174.984C184.922 181.025 180.025 185.922 173.984 185.922H77.8124L58.6716 205.062H198.594C201.614 205.062 204.062 202.614 204.062 199.594V79.2812H215V199.594C215 208.655 207.655 216 198.594 216H52.0704C44.7617 216 41.1018 207.164 46.2698 201.996L136.172 112.094H111.094V123.031H100.156V109.359C100.156 104.829 103.829 101.156 108.359 101.156H147.11L166.251 82.0156H81.0156V150.375H70.0785V82.0156C70.0785 75.975 74.9755 71.0781 81.0156 71.0781H177.188L196.328 51.9375H56.4062Z" fill="#282828"/>
</g>
<defs>
<clipPath id="clip0_165_719">
<rect width="256" height="256" fill="white"/>
</clipPath>
</defs>
</svg>

<svg xmlns="http://www.w3.org/2000/svg" width="256" height="256" fill="none"><g clip-path="url(#clip0_165_719)"><path fill="#F4F2ED" d="M196 0H60C26.863 0 0 26.863 0 60v136c0 33.137 26.863 60 60 60h136c33.137 0 60-26.863 60-60V60c0-33.137-26.863-60-60-60"/><path fill="#282828" fill-rule="evenodd" d="M56.406 51.938a5.47 5.47 0 0 0-5.468 5.468V177.72H40V57.406C40 48.346 47.345 41 56.406 41H202.93c7.308 0 10.968 8.836 5.8 14.004l-90.244 90.244h25.421v-11.279h10.937v14.013a8.203 8.203 0 0 1-8.203 8.203h-39.093l-18.799 18.799h85.235v-68.359h10.938v68.359c0 6.041-4.897 10.938-10.938 10.938H77.812l-19.14 19.14h139.922a5.47 5.47 0 0 0 5.468-5.468V79.281H215v120.313c0 9.061-7.345 16.406-16.406 16.406H52.07c-7.308 0-10.968-8.836-5.8-14.004l89.902-89.902h-25.078v10.937h-10.938v-13.672a8.204 8.204 0 0 1 8.203-8.203h38.751l19.141-19.14H81.016v68.359H70.079v-68.36c0-6.04 4.897-10.937 10.937-10.937h96.172l19.14-19.14z" clip-rule="evenodd"/></g><defs><clipPath id="clip0_165_719"><path fill="#fff" d="M0 0h256v256H0z"/></clipPath></defs></svg>
